flaticon/army-badges/medal-23.svg

<svg xmlns="http://www.w3.org/2000/svg" width="32" height="32" viewBox="0 0 24 24">
    <path d="M 17.21875 18.800781 C 17.21875 18.742188 17.203125 18.6875 17.175781 18.640625 C 17.105469 16.273438 15.46875 14.3125 13.257812 13.757812 C 13.460938 13.488281 13.578125 13.160156 13.578125 12.800781 C 13.578125 12.507812 13.5 12.234375 13.363281 12 L 16.78125 12 C 17.019531 12 17.179688 11.839844 17.179688 11.601562 L 17.179688 9.601562 C 17.179688 9.359375 17.019531 9.199219 16.78125 9.199219 L 16.378906 9.199219 L 16.378906 2.800781 L 16.78125 2.800781 C 17.019531 2.800781 17.179688 2.640625 17.179688 2.398438 L 17.179688 0.398438 C 17.179688 0.160156 17.019531 0 16.78125 0 L 7.179688 0 C 6.941406 0 6.78125 0.160156 6.78125 0.398438 L 6.78125 2.398438 C 6.78125 2.640625 6.941406 2.800781 7.179688 2.800781 L 7.578125 2.800781 L 7.578125 9.199219 L 7.179688 9.199219 C 6.941406 9.199219 6.78125 9.359375 6.78125 9.601562 L 6.78125 11.601562 C 6.78125 11.839844 6.941406 12 7.179688 12 L 10.597656 12 C 10.460938 12.234375 10.378906 12.507812 10.378906 12.800781 C 10.378906 13.160156 10.5 13.488281 10.699219 13.757812 C 8.441406 14.324219 6.78125 16.363281 6.78125 18.800781 C 6.78125 21.679688 9.101562 24 11.980469 24 C 14.800781 24 17.082031 21.777344 17.175781 18.980469 C 17.203125 18.925781 17.21875 18.867188 17.21875 18.800781 Z M 12.699219 16.320312 L 11.980469 17.039062 L 11.261719 16.320312 L 11.980469 14.921875 Z M 15.578125 4.800781 L 8.378906 4.800781 L 8.378906 4 L 15.578125 4 Z M 8.378906 5.601562 L 15.578125 5.601562 L 15.578125 6.398438 L 8.378906 6.398438 Z M 8.378906 7.199219 L 15.578125 7.199219 L 15.578125 8 L 8.378906 8 Z M 7.578125 0.800781 L 16.378906 0.800781 L 16.378906 2 L 15.980469 2 L 15.980469 1.601562 C 15.980469 1.359375 15.820312 1.199219 15.578125 1.199219 L 8.378906 1.199219 C 8.140625 1.199219 7.980469 1.359375 7.980469 1.601562 L 7.980469 2 L 7.578125 2 Z M 8.78125 2.398438 L 8.78125 2 L 15.179688 2 L 15.179688 2.398438 C 15.179688 2.640625 15.339844 2.800781 15.578125 2.800781 L 15.578125 3.199219 L 8.378906 3.199219 L 8.378906 2.800781 C 8.621094 2.800781 8.78125 2.640625 8.78125 2.398438 Z M 8.378906 8.800781 L 15.578125 8.800781 L 15.578125 9.199219 C 15.339844 9.199219 15.179688 9.359375 15.179688 9.601562 L 15.179688 10 L 8.78125 10 L 8.78125 9.601562 C 8.78125 9.359375 8.621094 9.199219 8.378906 9.199219 Z M 7.578125 10 L 7.980469 10 L 7.980469 10.398438 C 7.980469 10.640625 8.140625 10.800781 8.378906 10.800781 L 15.578125 10.800781 C 15.820312 10.800781 15.980469 10.640625 15.980469 10.398438 L 15.980469 10 L 16.378906 10 L 16.378906 11.199219 L 7.578125 11.199219 Z M 11.179688 12.800781 C 11.179688 12.359375 11.539062 12 11.980469 12 C 12.421875 12 12.78125 12.359375 12.78125 12.800781 C 12.78125 13.238281 12.421875 13.601562 11.980469 13.601562 C 11.539062 13.601562 11.179688 13.238281 11.179688 12.800781 Z M 11.261719 21.28125 L 11.980469 20.558594 L 12.699219 21.28125 L 11.980469 22.71875 Z M 12.644531 23.152344 L 13.539062 21.359375 C 13.621094 21.199219 13.578125 21 13.460938 20.878906 L 12.261719 19.679688 C 12.101562 19.519531 11.859375 19.519531 11.699219 19.679688 L 10.5 20.878906 C 10.378906 21.039062 10.339844 21.199219 10.421875 21.359375 L 11.316406 23.148438 C 9.414062 22.859375 7.921875 21.34375 7.628906 19.464844 L 9.421875 20.359375 C 9.460938 20.398438 9.5 20.398438 9.578125 20.398438 C 9.699219 20.398438 9.78125 20.359375 9.898438 20.28125 L 11.101562 19.078125 C 11.261719 18.921875 11.261719 18.679688 11.101562 18.519531 L 9.898438 17.320312 C 9.78125 17.199219 9.578125 17.160156 9.421875 17.238281 L 7.628906 18.132812 C 7.921875 16.253906 9.414062 14.742188 11.316406 14.449219 L 10.421875 16.238281 C 10.339844 16.398438 10.378906 16.558594 10.5 16.679688 L 11.699219 17.878906 C 11.78125 17.960938 11.859375 18 11.980469 18 C 12.101562 18 12.179688 17.960938 12.261719 17.921875 L 13.460938 16.71875 C 13.578125 16.558594 13.621094 16.398438 13.539062 16.238281 L 12.644531 14.449219 C 14.542969 14.734375 16.035156 16.21875 16.328125 18.113281 L 14.578125 17.238281 C 14.421875 17.160156 14.21875 17.199219 14.101562 17.320312 L 12.898438 18.519531 C 12.738281 18.679688 12.738281 18.921875 12.898438 19.078125 L 14.101562 20.28125 C 14.179688 20.359375 14.261719 20.398438 14.378906 20.398438 C 14.460938 20.398438 14.5 20.398438 14.578125 20.359375 L 16.328125 19.488281 C 16.035156 21.382812 14.542969 22.867188 12.644531 23.152344 Z M 8.058594 18.800781 L 9.5 18.078125 L 10.21875 18.800781 L 9.5 19.519531 Z M 15.898438 18.800781 L 14.460938 19.519531 L 13.738281 18.800781 L 14.460938 18.078125 Z M 15.898438 18.800781"/>
</svg>

<svg xmlns="http://www.w3.org/2000/svg" width="32" height="32" viewBox="0 0 24 24">
    <path d="M17.219 18.8a.317.317 0 0 0-.043-.16 5.185 5.185 0 0 0-3.918-4.882c.203-.27.32-.598.32-.957 0-.293-.078-.567-.215-.801h3.418c.239 0 .399-.16.399-.398v-2c0-.243-.16-.403-.399-.403h-.402V2.801h.402c.239 0 .399-.16.399-.403v-2C17.18.16 17.02 0 16.78 0H7.18C6.94 0 6.78.16 6.78.398v2c0 .243.16.403.399.403h.398v6.398H7.18c-.239 0-.399.16-.399.403v2c0 .238.16.398.399.398h3.418a1.586 1.586 0 0 0 .101 1.758A5.187 5.187 0 0 0 6.781 18.8a5.19 5.19 0 0 0 5.2 5.199 5.186 5.186 0 0 0 5.195-5.02.393.393 0 0 0 .043-.18zm-4.52-2.48l-.719.72-.718-.72.718-1.398zM15.58 4.8h-7.2V4h7.2zm-7.2.802h7.2v.796h-7.2zm0 1.597h7.2V8h-7.2zm-.8-6.398h8.8V2h-.399v-.398c0-.243-.16-.403-.402-.403h-7.2c-.237 0-.398.16-.398.403V2h-.402zM8.78 2.398V2h6.399v.398c0 .243.16.403.398.403v.398h-7.2v-.398c.243 0 .403-.16.403-.403zM8.38 8.801h7.2v.398c-.24 0-.4.16-.4.403V10H8.782v-.398c0-.243-.16-.403-.402-.403zM7.579 10h.401v.398c0 .243.16.403.399.403h7.2c.241 0 .401-.16.401-.403V10h.399v1.2h-8.8zm3.6 2.8a.802.802 0 0 1 1.602 0c0 .438-.36.802-.8.802a.804.804 0 0 1-.801-.801zm.083 8.481l.718-.722.72.722-.72 1.438zm1.383 1.871l.894-1.793a.427.427 0 0 0-.078-.48l-1.2-1.2a.39.39 0 0 0-.562 0l-1.199 1.2c-.121.16-.16.32-.078.48l.894 1.79a4.427 4.427 0 0 1-3.687-3.684l1.793.894c.039.04.078.04.156.04.121 0 .203-.04.32-.118l1.204-1.203a.385.385 0 0 0 0-.558l-1.204-1.2a.422.422 0 0 0-.476-.082l-1.793.895a4.432 4.432 0 0 1 3.687-3.684l-.894 1.79c-.082.16-.043.32.078.44l1.2 1.2c.081.082.16.121.28.121.122 0 .2-.04.282-.078l1.199-1.203c.117-.16.16-.32.078-.48l-.894-1.79a4.384 4.384 0 0 1 3.683 3.664l-1.75-.875a.422.422 0 0 0-.476.082l-1.204 1.2a.385.385 0 0 0 0 .558l1.204 1.203c.078.078.16.117.277.117.082 0 .121 0 .2-.039l1.75-.87a4.384 4.384 0 0 1-3.684 3.663zm-4.586-4.351l1.441-.723.719.723-.719.719zm7.84 0l-1.438.719-.723-.72.723-.722zm0 0"/>
</svg>
